!!!OTL: Nobis est natus
**kern
*staff1
=1-
*clefF4
*k[b-]
*met(c|)
*M2/2
0G
=2
1G
1G
=3
1G
1G
=4
1D
1D
=5
0GG
=6
!!linebreak:original
1C
1C
=7
1GG
1GG
=8
1GG
1BB-
=9
0F
!!linebreak:original
=10
1BB-
1F
=11
1G
1D
=12
0GG
!!linebreak:original
=13
0BB-
=14
0F
=15
1BB-
1F
=16
1G
1D
=17
0GG
==
*-
!!title: @{OTL}, @{GTL}, ed. @{ENC}
!!!pag:
!!!GTL: Hymnbook D
!!!EFL: 
!!!YEM: Creative Commons CC/BY/NC/SA 4.0
!!!ENC: Marcin Konik
!!!END: 2015-0m-dd
!!!EED: Marcin Konik
!!!EEV: 
!!!ONB: Encoded in vim by Marcin Konik
!!!CharacterEncoding: utf-8
!!!RDF**kern: l=long note in original notation
!!!RDF**kern: i=editorial accidental
!!muse2ps: z14jc180F
!!!COM: Anonim
!!!CDT: [?]
!!!TXO: Polish
!!!ODT: 
!!!GTL: Hymnbook D
!!!ARL: Opactwo św. Wojciecha, Staniątki 
!!!voices:	1
